X:1
T:Title
%%score { ( 1 3 5 ) | ( 2 4 6 ) }
L:1/8
Q:1/4=100
M:4/4
K:G
V:1 treble nm="Grand Piano"
V:3 treble 
V:5 treble 
V:2 treble 
V:4 treble 
V:6 treble 
V:1
 B>c B>A G2 D>D | E>D E>F G4 | G>A B>c d2 B2 | A>B [^CGA]>[CGB] [DFA]4 | B>A G>F G2 D>D | %5
w: W.~J.~Kirkpatrick * * * * * *|||||
 [Fc]>[GB] A>^G A4 | %6
w: |
[M:35/32] [Dd]>[Dc][DB]>[DA][G,DG]>[G,DF][G,CE]-(3:2:4[G,CE]3/2-[G,CE]/4[EGc]3/4-[EGc]/8 | %7
w: |
[M:4/4] (5:4:5[DGB]2 [B,DG]/ [CDA]/-[CDA]3/2[A,DF]/ [B,DG]4 | (3:2:2[Gd]3 [GB]3 z4 | %9
w: ||
 (3:2:2B3 G3 z4 | %10
w: |
[M:33/32] z/4 z/4 z/4 z/4 z/4 z/4 z/4 z/4 z/4 z/4 z/4 z/4 z/ A3/4 z/4 z/4 z/4 z/ c3/4 z/4 z/4 z/4 z/4 z/4 z/4 z/ | %11
w: |
[M:1/16] B/ |[M:4/4] A>d ^c>e z2 C2 | d2 B2 [Ac]>[GB] [FA]2 | B2 G2 A>F D2 | %15
w: ||||
[M:33/32] z/4 z/4 z/4 z/4 z/4 z/4 z/4 z/4 z/4 z/4 z/4 z/4 z/4 z/4 z/4 z/4 z/4 z/4 z/4 z/4 z/4 z/4 z/ d/4-d/4-d/4-d/4-d/4-d/-<d/- | %16
w: |
[M:3/32] d/4 z/4 z/4 |[M:4/4] [Gd]>[GB] [Fc]>[CFA] [B,DG]4 |] %18
w: ||
V:2
 [G,DG]>[G,EG] [G,DG]>[G,CD] [G,B,D]2[K:bass] [G,B,]>D, | E,>D, E,>F, G,4 | %2
 [G,B,D]>[G,CD] [G,DG]>[G,DG] [G,B,G]2 [G,DG]2 | [A,DF]>[A,DF][K:bass] A,,>A,, D,4 | %4
 [G,DG]>[G,CD] [G,B,D]>[G,CD] [G,B,D]2[K:bass] [G,B,]>[G,B,] | %5
 [D,A,D]>[D,G,D] [D,F,D]>[D,=F,D] [D,^F,D]4 | %6
[M:35/32] [B,,G,]>[A,,G,][G,,G,]>[A,,G,]B,,>B,,C,-(3:2:4C,3/2-C,/4C,3/4-C,/8 | %7
[M:4/4] (5:4:5D,2 D,/ D,/-D,3/2D,/ G,,4 | (3:2:2[G,B,]3 [G,D]3 z4 | %9
 (3:2:2[G,DG]3 [G,B,D]3[K:bass] z4 | %10
[M:33/32] B,,/4-B,,/4-B,,/4-B,,/-<B,,/ z/4 z/4 z/4 z/4 z/4 z/ D/[K:treble][G,D]/4-[G,D]/4-[G,D]/-<[G,D]/[G,D]/[G,B,DG]/4-[G,B,DG]/4-[G,B,DG]/4-[G,B,DG]/4-[G,B,DG]/4-[G,B,DG]/-<[G,B,DG]/ | %11
[M:1/16] [G,DG]/ |[M:4/4] [A,DF]>[A,DF] [A,EG]>[A,G][K:bass] D,4 | %13
 [G,B,G]2 [G,DG]2[K:bass] [D,D]>[D,D] [D,D]2 | [G,DG]2 [G,B,D]2[K:bass] A,>F, D,2 | %15
[M:33/32] z/4 z/4 z/4 z/4 z/4 z/4 z/4 z/4 z/4 z/4 z/4 z/4 z/4 z/4 z/4 z/4[K:treble] z/4 z/4 z/4 z/4 z/4 z/4 z/ [G,B,DG]/4-[G,B,DG]/4-[G,B,DG]/4-[G,B,DG]/4-[G,B,DG]/4-[G,B,DG]/-<[G,B,DG]/- | %16
[M:3/32] [G,B,DG]/4 z/4 z/4 |[M:4/4][K:bass] [D,B,]>[D,D] [D,A,]>D, G,,4 |] %18
V:3
 x8 | x8 | x8 | x8 | x8 | x8 |[M:35/32] x35/4 |[M:4/4] x8 | z4 (5:4:4[Ac]2 [GB]/ [FA]/- [FA]2 | %9
 z4 (5:4:4A2 F/ D/- D2 | %10
[M:33/32] G/4-G/4-G/-<G/-[F-G]/4F/ z/4 z/4 z/4 z/4 z/4 z/4 z/4 z/4 z/4 z/4 z/4 z/4 z/4 z/ d/4-d/4-d/4-d/4-d/4-d/-<d/ | %11
[M:1/16] x/ |[M:4/4] z4 [Fd]4 | x8 | x8 | %15
[M:33/32] [DG]/4-[DG]/4-[DG]/-<[DG]/[DF]/[DG]/4-[DG]/4-[DG]/-<[DG]/A/B/4-B/4-B/-<B/c/ z/4 z/4 z/4 z/4 z/4 z/4 z/4 z/ | %16
[M:3/32] [Ge]3/4 |[M:4/4] x8 |] %18
V:4
 x6[K:bass] x2 | x8 | x8 | x2[K:bass] x6 | x6[K:bass] x2 | x8 |[M:35/32] x35/4 |[M:4/4] x8 | %8
 z4 (5:4:4[D,D]2 [D,D]/ [D,D]/- [D,D]2 | z4[K:bass] (5:4:4A,2 F,/ D,/- D,2 | %10
[M:33/32] D,/4-D,/4-D,/-<D,/[A,,D,]3/4 z/4 z/4 z/4 z/ [D,F,]3/4[K:treble] z/4 z/4 z/4 z/ A,3/4 z/4 z/4 z/4 z/4 z/4 z/4 z/ | %11
[M:1/16] x/ |[M:4/4] z4[K:bass] A,2 z2 | x4[K:bass] x4 | x4[K:bass] x4 | %15
[M:33/32] [B,,D,]/4-[B,,D,]/4-[B,,D,]/-<[B,,D,]/[A,,D,]/[B,,G,]/4-[B,,G,]/4-[B,,G,]/-<[B,,G,]/[D,F,D]/[K:treble][G,D]/4-[G,D]/4-[G,D]/-<[G,D]/[G,A,D]/ z/4 z/4 z/4 z/4 z/4 z/4 z/4 z/ | %16
[M:3/32] [C,C]3/4 |[M:4/4][K:bass] x8 |] %18
V:5
 x8 | x8 | x8 | x8 | x8 | x8 |[M:35/32] x35/4 |[M:4/4] x8 | x8 | x8 | %10
[M:33/32] D/4-D/4-D/-<D/D/[DG]/4-[DG]/4-[DG]/4-[DG]/-<[DG]/ z/4 B/4-B/4-B/4-B/-<B/ z/4 z/4 z/4 z/4 z/4 z/4 z/4 z/4 z/ | %11
[M:1/16] x/ |[M:4/4] x8 | x8 | x8 |[M:33/32] x33/4 |[M:3/32] x3/4 |[M:4/4] x8 |] %18
V:6
 x6[K:bass] x2 | x8 | x8 | x2[K:bass] x6 | x6[K:bass] x2 | x8 |[M:35/32] x35/4 |[M:4/4] x8 | x8 | %9
 x4[K:bass] x4 | %10
[M:33/32] z/4 z/4 z/4 z/4 z/4 z/4 z/ [B,,G,]/4-[B,,G,]/4-[B,,G,]/4-[B,,G,]/-<[B,,G,]/ z/4[K:treble] z/4 z/4 z/4 z/4 z/4 z/4 z/4 z/4 z/4 z/4 z/4 z/4 z/4 z/4 z/4 z/ | %11
[M:1/16] x/ |[M:4/4] x4[K:bass] x4 | x4[K:bass] x4 | x4[K:bass] x4 |[M:33/32] x4[K:treble] x17/4 | %16
[M:3/32] x3/4 |[M:4/4][K:bass] x8 |] %18

